contributed-vectors/delimobil.svg

<svg xmlns="http://www.w3.org/2000/svg" viewBox="0 0 192 192"><path fill="#56595b" d="M65.49 172.5h97a10 10 0 0 0 10-10v-27.23h-49.1ZM162.5 19.5h-42.12L19.5 84.55V114l82.37-52.7h70.63V29.5a10 10 0 0 0-10-10Z"/><path fill="#fff" d="M29.5 19.5a10 10 0 0 0-10 10v55.05l100.88-65Z"/><path fill="#96dfd3" d="M19.5 114v48.5a10 10 0 0 0 10 10h36l57.9-37.23h49.1v-74h-70.63Z"/></svg>

<svg xmlns="http://www.w3.org/2000/svg" viewBox="0 0 192 192"><title>Delimobil</title><path d="M65.49,172.5h97a10,10,0,0,0,10-10V135.27H123.39Z" fill="#56595b"/><path d="M162.5,19.5H120.38L19.5,84.55V114l82.37-52.7H172.5V29.5A10,10,0,0,0,162.5,19.5Z" fill="#56595b"/><path d="M29.5,19.5a10,10,0,0,0-10,10V84.55l100.88-65Z" fill="#fff"/><path d="M19.5,114V162.5a10,10,0,0,0,10,10h36l57.9-37.23H172.5v-74H101.87Z" fill="#96dfd3"/></svg>
